svg/Outline/palette.svg

<svg viewBox="0 0 24 24" xmlns="http://www.w3.org/2000/svg" width="24" height="24"><path d="M12.02 15.25a1.87 1.87 0 1 1 0 3.75 1.87 1.87 0 0 1 0-3.75M7.2 12.97a1.57 1.57 0 1 1 0 3.14 1.57 1.57 0 0 1 0-3.14M7 8.3a1.57 1.57 0 1 1 0 3.14A1.57 1.57 0 0 1 7 8.3m8.04-2.14a1.57 1.57 0 1 1 0 3.14 1.57 1.57 0 0 1 0-3.14m-4.46-.78a1.57 1.57 0 1 1 0 3.14 1.57 1.57 0 0 1 0-3.14"/><path fill-rule="evenodd" d="M12.8 1.68c2.36 0 4.68.7 6.5 2.14l.36.3.24.22a5.67 5.67 0 0 1-.24 8.44l-1.48 1.32c-.19.16-.23.31-.23.4q-.02.12.16.34l.07.06.15.12.08.05c.06.03.17.07.42.1l.33.06c.35.07.84.2 1.24.52l.1.1.18.18c.38.45.58 1.03.6 1.59a2.4 2.4 0 0 1-.8 1.9c-2.1 1.86-5 2.8-7.89 2.8h-.09a12.5 12.5 0 0 1-7.66-2.59l-.43-.36a9.5 9.5 0 0 1 0-14.51 12.8 12.8 0 0 1 8.39-3.18m0 1.8A11 11 0 0 0 5.6 6.2a7.7 7.7 0 0 0 0 11.82 10.6 10.6 0 0 0 6.92 2.5h.07c2.54 0 5-.83 6.7-2.35l.08-.09q.11-.15.1-.4c0-.24-.1-.43-.19-.51l-.22-.11q-.2-.06-.52-.1-.46-.08-.86-.24-.41-.2-.7-.47a2.3 2.3 0 0 1-.83-1.75c0-.67.32-1.29.83-1.75l1.49-1.32.17-.15a3.87 3.87 0 0 0-.17-5.81l-.28-.24a8.7 8.7 0 0 0-5.4-1.75" clip-rule="evenodd"/></svg>

<svg viewBox="0 0 24 24" xmlns="http://www.w3.org/2000/svg" width="24" height="24"><path d="M12.02 15.25a1.87 1.87 0 1 1 0 3.75 1.87 1.87 0 0 1 0-3.75M7.2 12.97a1.57 1.57 0 1 1 0 3.14 1.57 1.57 0 0 1 0-3.14M7 8.3a1.57 1.57 0 1 1 0 3.14A1.57 1.57 0 0 1 7 8.3m8.04-2.14a1.57 1.57 0 1 1 0 3.14 1.57 1.57 0 0 1 0-3.14m-4.46-.78a1.57 1.57 0 1 1 0 3.14 1.57 1.57 0 0 1 0-3.14"/><path fill-rule="evenodd" d="M12.8 1.68C15.16 1.68 17.48 2.38 19.3 3.82L19.9 4.34A5.67 5.67 0 0 1 19.66 12.78L18.18 14.1C17.99 14.26 17.95 14.41 17.95 14.5Q17.93 14.62 18.11 14.84L18.41 15.07C18.47 15.1 18.58 15.14 18.83 15.17L19.16 15.23C19.51 15.3 20 15.43 20.4 15.75L20.68 16.03C21.06 16.48 21.26 17.06 21.28 17.62A2.4 2.4 0 0 1 20.48 19.52C18.38 21.38 15.48 22.32 12.59 22.32L12.5 22.32A12.5 12.5 0 0 1 4.84 19.73L4.41 19.37A9.5 9.5 0 0 1 4.41 4.86A12.8 12.8 0 0 1 12.8 1.68M12.8 3.48A11 11 0 0 0 5.6 6.2A7.7 7.7 0 0 0 5.6 18.02A10.6 10.6 0 0 0 12.52 20.52L12.59 20.52C15.13 20.52 17.59 19.69 19.29 18.17L19.37 18.08Q19.48 17.93 19.47 17.68C19.47 17.44 19.37 17.25 19.28 17.17L19.06 17.06Q18.86 17 18.54 16.96Q18.08 16.88 17.68 16.72Q17.27 16.52 16.98 16.25A2.3 2.3 0 0 1 16.15 14.5C16.15 13.83 16.47 13.21 16.98 12.75L18.64 11.28A3.87 3.87 0 0 0 18.47 5.47L18.19 5.23A8.7 8.7 0 0 0 12.79 3.48" clip-rule="evenodd"/></svg>
